usr/share/icons/biglinux-icons-material-dark/16/actions/text_vert_kern.svg

<svg xmlns="http://www.w3.org/2000/svg" viewBox="0 0 16 16">
  <defs id="defs3051">
    <style type="text/css" id="current-color-scheme">
      .ColorScheme-Text {
        color:#dedede;
      }
      </style>
  </defs>
  <path 
     style="fill:currentColor;fill-opacity:1;stroke:none" 
     d="M 9 4 L 9 10 L 10 10 L 10 9.2304688 A 3 3 0 0 0 12 10 A 3 3 0 0 0 15 7 A 3 3 0 0 0 12 4 A 3 3 0 0 0 10 4.7675781 L 10 4 L 9 4 z M 12 5 A 2 2 0 0 1 14 7 A 2 2 0 0 1 12 9 A 2 2 0 0 1 10 7 A 2 2 0 0 1 12 5 z M 4.0039062 8 A 3 3 0 0 0 1.0039062 11 A 3 3 0 0 0 4.0039062 14 A 3 3 0 0 0 6.0039062 13.232422 L 6.0039062 14.001953 L 7.0039062 14.001953 L 7.0039062 8.0019531 L 6.0039062 8.0019531 L 6.0039062 8.7714844 A 3 3 0 0 0 4.0039062 8.0019531 L 4.0039062 8 z M 4.0039062 9.0019531 A 2 2 0 0 1 6.0039062 11.001953 A 2 2 0 0 1 4.0039062 13.001953 A 2 2 0 0 1 2.0039062 11.001953 A 2 2 0 0 1 4.0039062 9.0019531 z "
     class="ColorScheme-Text"/>
  <path
     style="fill:#1d99f3"
     d="M 7.5 2 L 7.5 14 L 8.5 14 L 8.5 12 L 15 12 L 15 11 L 8.5 11 L 8.5 2 L 7.5 2 z " />
</svg>

<svg xmlns="http://www.w3.org/2000/svg" viewBox="0 0 16 16">
<defs id="defs3051">
<style id="current-color-scheme" type="text/css">
.ColorScheme-Text{color:#dedede}
</style>
</defs>
<path d="M9 4v6h1v-.77a3 3 0 0 0 2 .77 3 3 0 0 0 3-3 3 3 0 0 0-3-3 3 3 0 0 0-2 .768V4zm3 1a2 2 0 0 1 2 2 2 2 0 0 1-2 2 2 2 0 0 1-2-2 2 2 0 0 1 2-2M4.004 8a3 3 0 0 0-3 3 3 3 0 0 0 3 3 3 3 0 0 0 2-.768v.77h1v-6h-1v.77a3 3 0 0 0-2-.77zm0 1.002a2 2 0 0 1 2 2 2 2 0 0 1-2 2 2 2 0 0 1-2-2 2 2 0 0 1 2-2" class="ColorScheme-Text" style="fill:currentColor;fill-opacity:1;stroke:none"/>
<path d="M7.5 2v12h1v-2H15v-1H8.5V2z" style="fill:#1d99f3"/>
</svg>
